;FLAVOR:Marlin
;TIME:1525
;Filament used: 1.40418m
;Layer height: 0.2
;MINX:62.393
;MINY:179.7
;MINZ:0.3
;MAXX:135.8
;MAXY:196.3
;MAXZ:9.9
;Generated with Cura_SteamEngine 4.5.0
M104 S190
M105
M109 S190
M82 ;absolute extrusion mode
M80
G28 ;Home
G1 Z15.0 F6000 ;Move the platform down 15mm
;Prime the extruder
G92 E0
G1 F200 E3
G92 E0
G92 E0
G92 E0
G1 F1500 E-6.5
;LAYER_COUNT:49
;LAYER:0
M107
G1 F600 Z1.3
;MESH:Probe.stl
G0 F3600 X106.4 Y182.1 Z1.3
;TYPE:WALL-INNER
G1 F600 Z0.3
G1 F1500 E0
G1 F1800 X111.6 Y182.1 E0.19457
G1 X111.6 Y180.1 E0.26941
G1 X135.4 Y180.1 E1.15995
G1 X135.4 Y187.15 E1.42374
G1 X124.35 Y187.15 E1.83721
G1 X124.35 Y182.9 E1.99623
G1 X112.251 Y182.9 E2.44895
G1 X108.252 Y186.9 E2.66059
G1 X105.6 Y186.9 E2.75982
G1 X105.6 Y183.4 E2.89078
G1 X96.33 Y183.4 E3.23764
G1 X92.274 Y185.896 E3.41584
G1 X91.914 Y185.558 E3.43432
G1 X91.453 Y185.259 E3.45488
G1 X90.947 Y185.046 E3.47542
G1 X90.412 Y184.925 E3.49595
G1 X89.861 Y184.9 E3.51659
G1 X89.317 Y184.973 E3.53712
G1 X88.794 Y185.142 E3.55769
G1 X88.309 Y185.399 E3.57823
G1 X87.877 Y185.738 E3.59877
G1 X87.511 Y186.148 E3.61934
G1 X87.252 Y186.569 E3.63783
G1 X66.517 Y180.491 E4.44633
G1 X65.181 Y180.1 E4.49842
G1 X66.573 Y180.1 E4.52473
G1 X66.574 Y180.1 E4.52477
G1 X106.4 Y180.1 E6.01497
G1 X106.4 Y182.1 E6.0898
G0 F3600 X105.428 Y186.274
G0 X100.643 Y186.319
G0 X99.735 Y186.891
G0 X99.384 Y187.895
G0 X99.591 Y188.671
G0 X100.298 Y189.351
G0 X105.428 Y189.498
G0 X112.319 Y192.936
G0 X124.35 Y193.1
G1 F1800 X124.35 Y188.85 E6.24883
G1 X135.4 Y188.85 E6.66229
G1 X135.4 Y195.9 E6.92609
G1 X111.6 Y195.9 E7.81663
G1 X111.6 Y193.9 E7.89146
G1 X106.4 Y193.9 E8.08603
G1 X106.4 Y195.9 E8.16087
G1 X66.574 Y195.9 E9.65107
G1 X66.573 Y195.9 E9.6511
G1 X65.181 Y195.9 E9.70319
G1 X66.517 Y195.509 E9.7295
G1 X87.252 Y189.431 E10.538
G1 X87.511 Y189.852 E10.5565
G1 X87.877 Y190.262 E10.57706
G1 X88.309 Y190.601 E10.59761
G1 X88.794 Y190.858 E10.61815
G1 X89.317 Y191.027 E10.63871
G1 X89.861 Y191.1 E10.65925
G1 X90.412 Y191.075 E10.67989
G1 X90.947 Y190.954 E10.70041
G1 X91.453 Y190.741 E10.72096
G1 X91.914 Y190.442 E10.74152
G1 X92.274 Y190.104 E10.75999
G1 X96.33 Y192.6 E10.93819
G1 X105.6 Y192.6 E11.28506
G1 X105.6 Y189.1 E11.41602
G1 X108.252 Y189.1 E11.51525
G1 X112.251 Y193.1 E11.72689
G1 X124.35 Y193.1 E12.1796
G0 F3600 X112.319 Y192.936
G0 X105.428 Y189.498
G0 X100.643 Y189.472
G0 X99.591 Y188.671
G0 X99.384 Y187.895
G0 X99.739 Y186.884
G0 X100.848 Y186.3
G0 X105.428 Y186.274
G0 X111.008 Y183.674
G0 X111.5 Y181.7
G0 X111.2 Y181.7
;TYPE:WALL-OUTER
G1 F1800 X111.2 Y179.7 E12.25444
G1 X135.8 Y179.7 E13.17491
G1 X135.8 Y187.55 E13.46864
G1 X123.95 Y187.55 E13.91204
G1 X123.95 Y183.3 E14.07107
G1 X112.417 Y183.3 E14.50261
G1 X108.418 Y187.3 E14.71424
G1 X105.2 Y187.3 E14.83465
G1 X105.2 Y186.503 E14.86448
G1 X105.2 Y186.303 E14.87196
G1 X105 Y186.303 E14.87681
G1 X101.051 Y186.32 E15.02457
G1 X100.651 Y186.358 E15.0396
G1 X100.316 Y186.475 E15.05288
G1 X100.017 Y186.663 E15.0661
G1 X99.768 Y186.912 E15.07927
G1 X99.58 Y187.21 E15.09246
G1 X99.463 Y187.544 E15.1057
G1 X99.424 Y187.895 E15.11891
G1 X99.463 Y188.246 E15.13213
G1 X99.58 Y188.58 E15.14537
G1 X99.768 Y188.878 E15.15855
G1 X100.017 Y189.127 E15.17173
G1 X100.315 Y189.315 E15.18491
G1 X100.651 Y189.433 E15.19824
G1 X101.051 Y189.47 E15.21327
G1 X105.2 Y189.47 E15.36852
G1 X105.2 Y188.7 E15.39733
G1 X108.418 Y188.7 E15.51774
G1 X112.417 Y192.7 E15.72938
G1 X123.95 Y192.7 E16.16092
G1 X123.95 Y188.45 E16.31994
G1 X135.8 Y188.45 E16.76334
G1 X135.8 Y196.3 E17.05707
G1 X111.2 Y196.3 E17.97754
G1 X111.2 Y194.3 E18.05238
G1 X106.8 Y194.3 E18.21702
G1 X106.8 Y196.3 E18.29185
G1 X63.786 Y196.3 E19.90133
G1 X63.785 Y196.3 E19.90137
G1 X62.393 Y196.3 E19.95346
G1 X63.729 Y195.909 E19.97977
G1 X87.482 Y188.946 E20.90595
G1 X87.583 Y189.205 E20.91636
G1 X87.833 Y189.612 E20.93423
G1 X88.152 Y189.969 E20.95214
G1 X88.528 Y190.264 E20.97002
G1 X88.95 Y190.488 E20.9879
G1 X89.406 Y190.635 E21.00583
G1 X89.879 Y190.699 E21.02369
G1 X90.358 Y190.677 E21.04163
G1 X90.824 Y190.572 E21.0595
G1 X91.265 Y190.386 E21.07741
G1 X91.666 Y190.126 E21.09529
G1 X92.015 Y189.799 E21.11319
G1 X92.18 Y189.576 E21.12357
G1 X96.443 Y192.2 E21.31088
G1 X105.2 Y192.2 E21.63854
G1 X105.2 Y190.253 E21.7114
G1 X105.2 Y190.053 E21.71888
G1 X105 Y190.053 E21.72372
G1 X101.064 Y190.07 E21.871
G1 X100.618 Y190.035 E21.88774
G1 X100.252 Y189.936 E21.90193
G1 X99.911 Y189.775 E21.91604
G1 X99.598 Y189.556 E21.93033
G1 X99.33 Y189.287 E21.94454
G1 X99.116 Y188.981 E21.95851
G1 X98.953 Y188.628 E21.97306
G1 X98.858 Y188.267 E21.98703
G1 X98.826 Y187.891 E22.00115
G1 X98.86 Y187.513 E22.01535
G1 X98.959 Y187.147 E22.02954
G1 X99.12 Y186.806 E22.04365
G1 X99.339 Y186.493 E22.05794
G1 X99.608 Y186.225 E22.07215
G1 X99.92 Y186.008 E22.08637
G1 X100.262 Y185.85 E22.10047
G1 X100.628 Y185.753 E22.11463
G1 X101.062 Y185.72 E22.13092
G1 X105.2 Y185.72 E22.28575
G1 X105.2 Y183.8 E22.3576
G1 X96.443 Y183.8 E22.68526
G1 X92.18 Y186.424 E22.87257
G1 X92.015 Y186.201 E22.88295
G1 X91.666 Y185.874 E22.90084
G1 X91.265 Y185.614 E22.91873
G1 X90.824 Y185.428 E22.93664
G1 X90.358 Y185.323 E22.95451
G1 X89.879 Y185.301 E22.97245
G1 X89.406 Y185.365 E22.99031
G1 X88.95 Y185.512 E23.00824
G1 X88.528 Y185.736 E23.02611
G1 X88.152 Y186.031 E23.044
G1 X87.833 Y186.388 E23.06191
G1 X87.583 Y186.795 E23.07978
G1 X87.482 Y187.054 E23.09019
G1 X63.729 Y180.091 E24.01637
G1 X62.393 Y179.7 E24.06845
G1 X63.785 Y179.7 E24.09477
G1 X63.786 Y179.7 E24.09481
G1 X106.8 Y179.7 E25.70429
G1 X106.8 Y181.7 E25.77912
G1 X111.2 Y181.7 E25.94376
G0 F3600 X111.2 Y181.5
G0 X111.5 Y181.5
G0 X111.99 Y182.49
;TYPE:SKIN
G1 F1800 X111.99 Y180.49 E26.0186
G1 X135.01 Y180.49 E26.87995
G1 X135.01 Y186.76 E27.11456
G1 X124.74 Y186.76 E27.49884
G1 X124.74 Y182.51 E27.65786
G1 X112.089 Y182.51 E28.13124
G1 X108.092 Y186.51 E28.34282
G1 X105.99 Y186.51 E28.42147
G1 X105.99 Y183.01 E28.55244
G1 X96.219 Y183.01 E28.91804
G1 X92.324 Y185.408 E29.08919
G1 X92.156 Y185.25 E29.09782
G1 X91.636 Y184.913 E29.12101
G1 X91.066 Y184.673 E29.14415
G1 X90.465 Y184.537 E29.16721
G1 X89.844 Y184.508 E29.19047
G1 X89.231 Y184.591 E29.21361
G1 X88.642 Y184.781 E29.23677
G1 X88.096 Y185.071 E29.2599
G1 X87.61 Y185.453 E29.28303
G1 X87.197 Y185.914 E29.30619
G1 X87.076 Y186.111 E29.31484
G1 X67.896 Y180.49 E30.0627
G1 X106.01 Y180.49 E31.48884
G1 X106.01 Y182.49 E31.56367
G1 X111.99 Y182.49 E31.78743
G0 F3600 X134.829 Y180.771
G1 F1800 X134.727 Y180.67 E31.7928
G0 F3600 X134.162 Y180.67
G1 F1800 X134.829 Y181.337 E31.82809
G0 F3600 X134.829 Y181.903
G1 F1800 X133.596 Y180.67 E31.89334
G0 F3600 X133.03 Y180.67
G1 F1800 X134.829 Y182.468 E31.98851
G0 F3600 X134.829 Y183.034
G1 F1800 X132.465 Y180.67 E32.11361
G0 F3600 X131.899 Y180.67
G1 F1800 X134.829 Y183.6 E32.26865
G0 F3600 X134.829 Y184.166
G1 F1800 X131.333 Y180.67 E32.45365
G0 F3600 X130.768 Y180.67
G1 F1800 X134.829 Y184.731 E32.66854
G0 F3600 X134.829 Y185.297
G1 F1800 X130.202 Y180.67 E32.91339
G0 F3600 X129.636 Y180.67
G1 F1800 X134.829 Y185.863 E33.18818
G0 F3600 X134.829 Y186.428
G1 F1800 X129.071 Y180.67 E33.49288
G0 F3600 X128.505 Y180.67
G1 F1800 X134.415 Y186.58 E33.80561
G0 F3600 X133.849 Y186.58
G1 F1800 X127.939 Y180.67 E34.11835
G0 F3600 X127.373 Y180.67
G1 F1800 X133.283 Y186.58 E34.43109
G0 F3600 X132.718 Y186.58
G1 F1800 X126.808 Y180.67 E34.74382
G0 F3600 X126.242 Y180.67
G1 F1800 X132.152 Y186.58 E35.05656
G0 F3600 X131.586 Y186.58
G1 F1800 X125.676 Y180.67 E35.3693
G0 F3600 X125.111 Y180.67
G1 F1800 X131.021 Y186.58 E35.68203
G0 F3600 X130.455 Y186.58
G1 F1800 X124.545 Y180.67 E35.99477
G0 F3600 X123.979 Y180.67
G1 F1800 X129.889 Y186.58 E36.30751
G0 F3600 X129.324 Y186.58
G1 F1800 X123.414 Y180.67 E36.62024
G0 F3600 X122.848 Y180.67
G1 F1800 X124.508 Y182.329 E36.70806
G0 F3600 X123.942 Y182.329
G1 F1800 X122.282 Y180.67 E36.79587
G0 F3600 X121.717 Y180.67
G1 F1800 X123.376 Y182.329 E36.88366
G0 F3600 X122.811 Y182.329
G1 F1800 X121.151 Y180.67 E36.97148
G0 F3600 X120.585 Y180.67
G1 F1800 X122.245 Y182.329 E37.05929
G0 F3600 X121.679 Y182.329
G1 F1800 X120.02 Y180.67 E37.14708
G0 F3600 X119.454 Y180.67
G1 F1800 X121.113 Y182.329 E37.23487
G0 F3600 X120.548 Y182.329
G1 F1800 X118.888 Y180.67 E37.32268
G0 F3600 X118.323 Y180.67
G1 F1800 X119.982 Y182.329 E37.41047
G0 F3600 X119.416 Y182.329
G1 F1800 X117.757 Y180.67 E37.49826
G0 F3600 X117.191 Y180.67
G1 F1800 X118.851 Y182.329 E37.58608
G0 F3600 X118.285 Y182.329
G1 F1800 X116.625 Y180.67 E37.67389
G0 F3600 X116.06 Y180.67
G1 F1800 X117.719 Y182.329 E37.76168
G0 F3600 X117.154 Y182.329
G1 F1800 X115.494 Y180.67 E37.8495
G0 F3600 X114.928 Y180.67
G1 F1800 X116.588 Y182.329 E37.93731
G0 F3600 X116.022 Y182.329
G1 F1800 X114.363 Y180.67 E38.0251
G0 F3600 X113.797 Y180.67
G1 F1800 X115.457 Y182.329 E38.11291
G0 F3600 X114.891 Y182.329
G1 F1800 X113.231 Y180.67 E38.20073
G0 F3600 X112.666 Y180.67
G1 F1800 X114.325 Y182.329 E38.28852
G0 F3600 X113.76 Y182.329
G1 F1800 X112.169 Y180.738 E38.37271
G0 F3600 X112.169 Y181.304
G1 F1800 X113.194 Y182.329 E38.42695
G0 F3600 X112.628 Y182.329
G1 F1800 X112.169 Y181.87 E38.45124
G0 F3600 X111.272 Y182.67
G1 F1800 X111.473 Y182.872 E38.4619
G0 F3600 X111.191 Y183.154
G1 F1800 X110.706 Y182.67 E38.48754
G0 F3600 X110.141 Y182.67
G1 F1800 X110.908 Y183.437 E38.52812
G0 F3600 X110.625 Y183.72
G1 F1800 X109.575 Y182.67 E38.58369
G0 F3600 X109.009 Y182.67
G1 F1800 X110.342 Y184.003 E38.65422
G0 F3600 X110.059 Y184.286
G1 F1800 X108.444 Y182.67 E38.73971
G0 F3600 X107.878 Y182.67
G1 F1800 X109.777 Y184.569 E38.8402
G0 F3600 X109.494 Y184.852
G1 F1800 X107.312 Y182.67 E38.95566
G0 F3600 X106.746 Y182.67
G1 F1800 X109.211 Y185.135 E39.0861
G0 F3600 X108.929 Y185.418
G1 F1800 X106.181 Y182.67 E39.23152
G0 F3600 X105.774 Y182.829
G1 F1800 X103.615 Y180.67 E39.34576
G0 F3600 X104.18 Y180.67
G1 F1800 X105.829 Y182.319 E39.43302
G0 F3600 X105.829 Y181.753
G1 F1800 X104.746 Y180.67 E39.49033
G0 F3600 X105.312 Y180.67
G1 F1800 X105.829 Y181.187 E39.51769
G0 F3600 X105.209 Y182.829
G1 F1800 X103.049 Y180.67 E39.63196
G0 F3600 X102.483 Y180.67
G1 F1800 X104.643 Y182.829 E39.74624
G0 F3600 X104.077 Y182.829
G1 F1800 X101.918 Y180.67 E39.86048
G0 F3600 X101.352 Y180.67
G1 F1800 X103.511 Y182.829 E39.97473
G0 F3600 X102.946 Y182.829
G1 F1800 X100.786 Y180.67 E40.089
G0 F3600 X100.221 Y180.67
G1 F1800 X102.38 Y182.829 E40.20325
G0 F3600 X101.814 Y182.829
G1 F1800 X99.655 Y180.67 E40.3175
G0 F3600 X99.089 Y180.67
G1 F1800 X101.249 Y182.829 E40.43177
G0 F3600 X100.683 Y182.829
G1 F1800 X98.524 Y180.67 E40.54602
G0 F3600 X97.958 Y180.67
G1 F1800 X100.117 Y182.829 E40.66026
G0 F3600 X99.552 Y182.829
G1 F1800 X97.392 Y180.67 E40.77454
G0 F3600 X96.826 Y180.67
G1 F1800 X98.986 Y182.829 E40.88881
G0 F3600 X98.42 Y182.829
G1 F1800 X96.261 Y180.67 E41.00306
G0 F3600 X95.695 Y180.67
G1 F1800 X97.855 Y182.829 E41.11733
G0 F3600 X97.289 Y182.829
G1 F1800 X95.129 Y180.67 E41.2316
G0 F3600 X94.564 Y180.67
G1 F1800 X96.723 Y182.829 E41.34585
G0 F3600 X96.16 Y182.832
G1 F1800 X93.998 Y180.67 E41.46026
G0 F3600 X93.432 Y180.67
G1 F1800 X95.81 Y183.048 E41.58609
G0 F3600 X95.46 Y183.263
G1 F1800 X92.867 Y180.67 E41.7233
G0 F3600 X92.301 Y180.67
G1 F1800 X95.11 Y183.479 E41.87195
G0 F3600 X94.76 Y183.695
G1 F1800 X91.735 Y180.67 E42.03202
G0 F3600 X91.17 Y180.67
G1 F1800 X94.41 Y183.91 E42.20347
G0 F3600 X94.06 Y184.126
G1 F1800 X90.604 Y180.67 E42.38635
G0 F3600 X90.038 Y180.67
G1 F1800 X93.71 Y184.342 E42.58066
G0 F3600 X93.36 Y184.557
G1 F1800 X89.473 Y180.67 E42.78635
G0 F3600 X88.907 Y180.67
G1 F1800 X93.009 Y184.772 E43.00341
G0 F3600 X92.659 Y184.988
G1 F1800 X88.341 Y180.67 E43.2319
G0 F3600 X87.775 Y180.67
G1 F1800 X92.113 Y185.007 E43.46143
G1 X92.183 Y185.077
G0 F3600 X91.017 Y184.477
G1 F1800 X87.21 Y180.67 E43.66288
G0 F3600 X86.644 Y180.67
G1 F1800 X90.323 Y184.349 E43.85756
G0 F3600 X89.747 Y184.338
G1 F1800 X86.078 Y180.67 E44.05169
G0 F3600 X85.513 Y180.67
G1 F1800 X89.248 Y184.405 E44.24933
G0 F3600 X88.813 Y184.535
G1 F1800 X84.947 Y180.67 E44.45388
G0 F3600 X84.381 Y180.67
G1 F1800 X88.41 Y184.699 E44.66708
G0 F3600 X88.041 Y184.895
G1 F1800 X83.816 Y180.67 E44.89065
G0 F3600 X83.25 Y180.67
G1 F1800 X87.718 Y185.137 E45.12706
G0 F3600 X87.415 Y185.4
G1 F1800 X82.684 Y180.67 E45.37738
G0 F3600 X82.119 Y180.67
G1 F1800 X87.148 Y185.699 E45.6435
G0 F3600 X86.694 Y185.81
G1 F1800 X81.553 Y180.67 E45.91551
G0 F3600 X80.987 Y180.67
G1 F1800 X85.893 Y185.576 E46.17512
G1 X85.963 Y185.646
G0 F3600 X85.093 Y185.341
G1 F1800 X80.422 Y180.67 E46.42229
G0 F3600 X79.856 Y180.67
G1 F1800 X84.293 Y185.107 E46.65709
G1 X84.363 Y185.177
G0 F3600 X83.493 Y184.872
G1 F1800 X79.29 Y180.67 E46.87947
G0 F3600 X78.725 Y180.67
G1 F1800 X82.693 Y184.638 E47.08944
G1 X82.763 Y184.708
G0 F3600 X81.892 Y184.403
G1 F1800 X78.159 Y180.67 E47.28698
G0 F3600 X77.593 Y180.67
G1 F1800 X81.092 Y184.168 E47.47211
G1 X81.162 Y184.238
G0 F3600 X80.292 Y183.934
G1 F1800 X77.027 Y180.67 E47.64485
G0 F3600 X76.462 Y180.67
G1 F1800 X79.492 Y183.7 E47.80519
G1 X79.562 Y183.77
G0 F3600 X78.691 Y183.465
G1 F1800 X75.896 Y180.67 E47.95309
G0 F3600 X75.33 Y180.67
G1 F1800 X77.891 Y183.23 E48.08858
G1 X77.961 Y183.3
G0 F3600 X77.091 Y182.996
G1 F1800 X74.765 Y180.67 E48.21167
G0 F3600 X74.199 Y180.67
G1 F1800 X76.291 Y182.761 E48.32234
G1 X76.361 Y182.831
G0 F3600 X75.49 Y182.526
G1 F1800 X73.633 Y180.67 E48.42058
G0 F3600 X73.068 Y180.67
G1 F1800 X74.69 Y182.292 E48.50641
G1 X74.76 Y182.362
G0 F3600 X73.89 Y182.058
G1 F1800 X72.502 Y180.67 E48.57986
G0 F3600 X71.936 Y180.67
G1 F1800 X73.09 Y181.823 E48.6409
G1 X73.16 Y181.893
G0 F3600 X72.289 Y181.588
G1 F1800 X71.371 Y180.67 E48.68948
G0 F3600 X70.805 Y180.67
G1 F1800 X71.489 Y181.354 E48.72567
G1 X71.559 Y181.424
G0 F3600 X70.689 Y181.119
G1 F1800 X70.239 Y180.67 E48.74946
G0 F3600 X69.889 Y180.885
G1 F1800 X69.674 Y180.67 E48.76084
G0 F3600 X106.169 Y183.224
G1 F1800 X108.646 Y185.701 E48.89191
G0 F3600 X108.363 Y185.984
G1 F1800 X106.169 Y183.789 E49.00804
G0 F3600 X106.169 Y184.355
G1 F1800 X108.08 Y186.266 E49.10916
G0 F3600 X107.577 Y186.329
G1 F1800 X106.169 Y184.921 E49.18367
G0 F3600 X106.169 Y185.486
G1 F1800 X107.012 Y186.329 E49.22827
G0 F3600 X106.446 Y186.329
G1 F1800 X106.169 Y186.052 E49.24293
G0 F3600 X112.319 Y183.064
G0 X124.178 Y183.072
G0 X124.918 Y186.134
G1 F1800 X125.364 Y186.58 E49.26653
G0 F3600 X125.93 Y186.58
G1 F1800 X124.918 Y185.568 E49.32008
G0 F3600 X124.918 Y185.003
G1 F1800 X126.495 Y186.58 E49.40353
G0 F3600 X127.061 Y186.58
G1 F1800 X124.918 Y184.437 E49.51693
G0 F3600 X124.918 Y183.871
G1 F1800 X127.627 Y186.58 E49.66028
G0 F3600 X128.192 Y186.58
G1 F1800 X124.918 Y183.306 E49.83353
G0 F3600 X124.918 Y182.74
G1 F1800 X128.758 Y186.58 E50.03673
G1 X128.828 Y186.65
G0 F3600 X124.178 Y183.072
G0 X112.319 Y183.064
G0 X105.428 Y186.274
G0 X100.643 Y186.319
G0 X99.735 Y186.891
G0 X99.384 Y187.895
G0 X99.591 Y188.671
G0 X100.298 Y189.351
G0 X105.428 Y189.498
G0 X112.319 Y192.936
G0 X124.178 Y192.928
G0 X124.74 Y189.24
G1 F1800 X135.01 Y189.24 E50.42101
G1 X135.01 Y195.51 E50.65562
G1 X111.99 Y195.51 E51.51698
G1 X111.99 Y193.51 E51.59181
G1 X106.01 Y193.51 E51.81557
G1 X106.01 Y195.51 E51.8904
G1 X67.896 Y195.51 E53.31654
G1 X87.076 Y189.889 E54.0644
G1 X87.197 Y190.086 E54.07305
G1 X87.61 Y190.547 E54.09621
G1 X88.096 Y190.929 E54.11934
G1 X88.642 Y191.219 E54.14247
G1 X89.231 Y191.409 E54.16563
G1 X89.844 Y191.492 E54.18877
G1 X90.465 Y191.463 E54.21203
G1 X91.066 Y191.327 E54.23509
G1 X91.636 Y191.087 E54.25823
G1 X92.156 Y190.75 E54.28142
G1 X92.324 Y190.592 E54.29005
G1 X96.219 Y192.99 E54.4612
G1 X105.99 Y192.99 E54.8268
G1 X105.99 Y189.49 E54.95776
G1 X108.092 Y189.49 E55.03642
G1 X112.089 Y193.49 E55.248
G1 X124.74 Y193.49 E55.72137
G1 X124.74 Y189.24 E55.8804
G0 F3600 X134.829 Y189.822
G1 F1800 X134.426 Y189.419 E55.90172
G0 F3600 X133.86 Y189.419
G1 F1800 X134.829 Y190.388 E55.953
G0 F3600 X134.829 Y190.954
G1 F1800 X133.295 Y189.419 E56.0342
G0 F3600 X132.729 Y189.419
G1 F1800 X134.829 Y191.519 E56.14533
